win-linux/res/icons/title/restore_unix_normal.svg

<?xml version="1.0" encoding="UTF-8" standalone="no"?>
<svg
   width="16"
   height="16"
   viewBox="0 0 16 16"
   fill="none"
   version="1.1"
   id="svg1"
   sodipodi:docname="restore.svg"
   inkscape:version="1.3 (0e150ed6c4, 2023-07-21)"
   xmlns:inkscape="http://www.inkscape.org/namespaces/inkscape"
   xmlns:sodipodi="http://sodipodi.sourceforge.net/DTD/sodipodi-0.dtd"
   xmlns="http://www.w3.org/2000/svg"
   xmlns:svg="http://www.w3.org/2000/svg">
  <defs
     id="defs1" />
  <sodipodi:namedview
     id="namedview1"
     pagecolor="#ffffff"
     bordercolor="#666666"
     borderopacity="1.0"
     inkscape:showpageshadow="2"
     inkscape:pageopacity="0.0"
     inkscape:pagecheckerboard="0"
     inkscape:deskcolor="#d1d1d1"
     inkscape:zoom="17.964932"
     inkscape:cx="0.16699201"
     inkscape:cy="13.387193"
     inkscape:window-width="1920"
     inkscape:window-height="1017"
     inkscape:window-x="0"
     inkscape:window-y="0"
     inkscape:window-maximized="1"
     inkscape:current-layer="svg1" />
  <path
     style="fill:#dadada;fill-opacity:0.53333336;fill-rule:evenodd;stroke:none;stroke-width:3.42689;stroke-linecap:round;stroke-linejoin:round;stroke-miterlimit:0;paint-order:markers stroke fill"
     id="path2"
     sodipodi:type="arc"
     sodipodi:cx="8"
     sodipodi:cy="8"
     sodipodi:rx="8"
     sodipodi:ry="8"
     sodipodi:start="0"
     sodipodi:end="6.2803127"
     sodipodi:open="true"
     sodipodi:arc-type="arc"
     d="M 16,8 A 8,8 0 0 1 8.0057452,15.999998 8,8 0 0 1 8.2518706e-6,8.0114904 8,8 0 0 1 7.9827644,1.8566705e-5 8,8 0 0 1 15.999967,7.9770192" />
  <path
     d="m 11.2,4.8 v 6.4 H 4.8 V 4.8 Z M 4,4 v 8 h 8 V 4 Z"
     fill="#444444"
     id="path1"
     style="stroke-width:0.8" />
</svg>

<svg width="16" height="16" version="1.1" viewBox="0 0 16 16" xmlns="http://www.w3.org/2000/svg">
 <path d="m16 8a8 8 0 0 1-7.9943 8 8 8 0 0 1-8.0057-7.9885 8 8 0 0 1 7.9828-8.0115 8 8 0 0 1 8.0172 7.977" fill="#dadada" fill-opacity=".53333" fill-rule="evenodd" style="paint-order:markers stroke fill"/>
 <path d="m11.2 4.8v6.4h-6.4v-6.4zm-7.2-0.8v8h8v-8z" fill="#444444" stroke-width=".8"/>
</svg>
